icons/category/icon_category-unknown_xl_white.svg

<svg xmlns="http://www.w3.org/2000/svg" width="34" height="34" viewBox="0 0 34 34"><g fill="none" fill-rule="evenodd"><path d="M-1-1h36v36H-1z"/><path fill="#FFF" d="M16.5 22.157c-1.205 0-2 .759-2 1.928 0 1.157.795 1.916 2 1.916 1.229 0 2-.759 2-1.916 0-1.169-.771-1.928-2-1.928zM16.908 8c-3.55 0-5.498 2.056-5.594 4.888h2.809c.096-1.458 1.088-2.39 2.63-2.39 1.506 0 2.51.896 2.51 2.139 0 1.183-.502 1.817-1.984 2.713-1.649.968-2.343 2.044-2.235 3.837l.011.813h2.773v-.681c0-1.183.442-1.793 2.008-2.713 1.625-.968 2.534-2.247 2.534-4.076 0-2.642-2.188-4.53-5.462-4.53z" opacity=".3"/><path fill="#FFF" d="M17 0C7.626 0 0 7.626 0 17c0 9.374 7.626 17 17 17 9.374 0 17-7.626 17-17 0-9.374-7.626-17-17-17zm0 33C8.178 33 1 25.822 1 17S8.178 1 17 1s16 7.178 16 16-7.178 16-16 16z"/></g></svg>

<svg xmlns="http://www.w3.org/2000/svg" width="34" height="34" viewBox="0 0 34 34" fill="none"><rect width="34" height="34" fill="none"/>
<g clip-path="url(#clip0)">
<path fill-rule="evenodd" clip-rule="evenodd" d="M16.5 22.157C15.295 22.157 14.5 22.916 14.5 24.085C14.5 25.242 15.295 26.001 16.5 26.001C17.729 26.001 18.5 25.242 18.5 24.085C18.5 22.916 17.729 22.157 16.5 22.157ZM16.908 8C13.358 8 11.41 10.056 11.314 12.888H14.123C14.219 11.43 15.211 10.498 16.753 10.498C18.259 10.498 19.263 11.394 19.263 12.637C19.263 13.82 18.761 14.454 17.279 15.35C15.63 16.318 14.936 17.394 15.044 19.187L15.055 20H17.828V19.319C17.828 18.136 18.27 17.526 19.836 16.606C21.461 15.638 22.37 14.359 22.37 12.53C22.37 9.888 20.182 8 16.908 8Z" fill="white" fill-opacity="0.3"/>
<path fill-rule="evenodd" clip-rule="evenodd" d="M17 0C7.626 0 0 7.626 0 17C0 26.374 7.626 34 17 34C26.374 34 34 26.374 34 17C34 7.626 26.374 0 17 0ZM17 33C8.178 33 1 25.822 1 17C1 8.178 8.178 1 17 1C25.822 1 33 8.178 33 17C33 25.822 25.822 33 17 33Z" fill="white"/>
</g>
<defs>
<clipPath id="clip0">
<path d="M0 0H34V34H0V0Z" fill="white"/>
</clipPath>
</defs>
</svg>
